!!!SOCIAL_FUNCTION:	dream songs
!!!PDT:	1909
!!!OTL: No_108_Doctor's_Song.krn
!!!REG: Great_Lakes
!!!LANG: Non-Tone
!!!LING_GROUP: Algonquin
**kern	**kern
*staff2	*staff1
*clefF4	*clefF4
*k[b-e-a-d-]	*k[b-e-a-d-]
*M3/4	*M3/4
8r	8f\
=1	=1
8GG/L	(4f\
8GG/J	.
8GG/L	8en\L)
8GG/J	8c\J
8GG/L	8.c\L
8GG/J	.
.	16c\Jk
=2||	=2||
*M2/4	*M2/4
2r	8.c\L
.	16c\Jk
.	4c\
=3	=3
2r	4.e-\
.	8e-\
=4	=4
2r	8.e-\L
.	16e-\Jk
.	(16e-\LK
.	8c\)
.	16c\Jk
=5	=5
2r	8.c\L
.	16c\Jk
.	4c\
=6||	=6||
*M3/4	*M3/4
2.r	2.c\
=7	=7
2.r	(16e-\LK
.	8.c\J)
.	(4e-\
.	8c\L)
.	8A-\J
=8	=8
2.r	(8A-\
.	24F\LL)
.	24F\
.	24F\JJ
.	8.F\L
.	16A-\Jk
.	4A-\
=9	=9
2.r	(4A-\
.	4F\)
.	(16c\LK
.	8.A-\J)
=10	=10
2.r	(4A-\
.	8F\L)
.	8F\J
.	(12F\L
.	12E-\)
.	12E-\J
=11||	=11||
*M2/4	*M2/4
2r	(16E-/LK
.	8C/)
.	16C/Jk
.	4C/
=12	=12
2r	4.E-\
.	8F\
=13	=13
2r	(4F\
.	8E-\L)
.	8F\J
=14||	=14||
*M3/4	*M3/4
2.r	(12F\L
.	12E-\)
.	12E-\J
.	(16E-/LK
.	8C/)
.	16C/Jk
.	4C/
=15	=15
*M2/4	*M2/4
2r	2C/
==	==
*-	*-
